X: 14284
T: Gaffo's Ball
R: reel
M: 4/4
K: Dmajor
DB,|:A,DFB A2FD|A,DFD EDCB,|A,DFB A2FD|B,DGF EDCB,|
A,DFB A2FD|A,DFD EDCB,|A,DFB ADFD|B,DEF E2fe:|
|:d~B3 BAAF|ABAF EDDB,|A,DFA BdAD|F2ED E2 fe|
d~B3 BAAF|ABAF EDDB,|A,DFA BdAF|1 EDEF D2 fe:|2 EDEF D2CB,||

